assets/svg/networks/wallet_ltc.svg

<svg width="36" height="36" viewBox="0 0 36 36" fill="none" xmlns="http://www.w3.org/2000/svg">
<g clip-path="url(#clip0_19002_45692)">
<rect width="36" height="36" rx="10" fill="#1F6DE4"/>
<path d="M10.4085 27L11.7304 21.6158L10.125 22.239L10.899 19.1351L12.5235 18.4826L14.8646 9H20.6347L18.9259 15.9705L20.5121 15.3281L19.7471 18.4219L18.1418 19.0642L17.1877 22.9826H25.875L24.8929 27H10.4085Z" fill="white"/>
</g>
<defs>
<clipPath id="clip0_19002_45692">
<rect width="36" height="36" fill="white"/>
</clipPath>
</defs>
</svg>

<svg xmlns="http://www.w3.org/2000/svg" width="36" height="36" fill="none"><g clip-path="url(#a)"><rect width="36" height="36" fill="#1F6DE4" rx="10"/><path fill="#fff" d="m10.409 27 1.321-5.384-1.605.623.774-3.104 1.625-.652L14.864 9h5.77l-1.708 6.97 1.586-.642-.765 3.094-1.605.642-.954 3.919h8.687L24.893 27z"/></g><defs><clipPath id="a"><path fill="#fff" d="M0 0h36v36H0z"/></clipPath></defs></svg>
